dist/img/icons/services/cardiology.svg

<svg width="127" height="110" viewBox="0 0 127 110" fill="none" xmlns="http://www.w3.org/2000/svg">
<path d="M92.7352 0C82.2939 0 73.2194 4.96972 66.4934 14.3722C65.164 16.2301 64.0534 18.0856 63.1389 19.8098C62.2243 18.0856 61.1137 16.2301 59.7844 14.3722C53.0584 4.96972 43.9839 0 33.5425 0C14.2062 0 0 16.0942 0 35.8271C0 57.8209 17.87 72.8724 44.9196 95.6556C49.9581 99.8995 55.1681 104.288 60.7159 109.096C61.4112 109.699 62.2749 110 63.1389 110C64.0028 110 64.8666 109.699 65.5618 109.096C71.1097 104.288 76.3196 99.8995 81.3581 95.6556C108.408 72.8721 126.278 57.8209 126.278 35.8271C126.278 16.0994 112.078 0 92.7352 0ZM76.5916 89.9966C72.2713 93.6354 67.8255 97.3801 63.1389 101.413C58.4523 97.3801 54.0064 93.6354 49.6861 89.9966C35.1469 77.7501 23.4272 67.877 16.0449 58.2061H33.5425C34.9439 58.2061 36.2249 57.4144 36.8514 56.161L40.9416 47.9809L52.4309 70.9592C53.0574 72.2126 54.3384 73.0043 55.7398 73.0043C57.1412 73.0043 58.4222 72.2126 59.0487 70.9592L63.1389 62.7788L67.2291 70.959C67.8555 72.2124 69.1366 73.0041 70.538 73.0041C71.9393 73.0041 73.2204 72.2124 73.8468 70.959L85.3361 47.9809L89.4263 56.161C90.0528 57.4144 91.3338 58.1815 92.7352 58.1815H110.233C102.851 67.8526 91.1309 77.7501 76.5916 89.9966ZM95.0215 50.8071L88.645 38.054C88.0185 36.8006 86.7375 36.0089 85.3361 36.0089C83.9347 36.0089 82.6537 36.8006 82.0273 38.054L70.538 61.0321L66.4477 52.8519C65.8213 51.5988 64.5403 50.8071 63.1389 50.8071C61.7375 50.8071 60.4565 51.5988 59.83 52.8522L55.7398 61.0321L44.2505 38.0537C43.624 36.8006 42.343 36.0089 40.9416 36.0089C39.5402 36.0089 38.2592 36.8006 37.6327 38.054L31.256 50.8071H11.2663C8.7509 45.9888 7.39909 41.0837 7.39909 35.8271C7.39909 19.6204 18.6383 7.39909 33.5425 7.39909C41.5451 7.39909 48.3084 11.1366 53.6451 18.5078C57.8461 24.3109 59.5548 30.2707 59.5755 30.3439C60.0214 31.9426 61.4783 33.0493 63.1389 33.0493C64.8017 33.0493 66.2603 31.9396 66.7042 30.337C66.7679 30.1076 73.2813 7.39909 92.7352 7.39909C107.639 7.39909 118.879 19.6204 118.879 35.8271C118.879 41.0839 117.527 45.9888 115.011 50.8071H95.0215Z" fill="#FFC59E"/>
</svg>

<svg width="127" height="110" fill="none" xmlns="http://www.w3.org/2000/svg"><path d="M92.735 0C82.294 0 73.22 4.97 66.493 14.372a48.075 48.075 0 00-3.354 5.438 48.104 48.104 0 00-3.355-5.438C53.058 4.97 43.984 0 33.542 0 14.206 0 0 16.094 0 35.827c0 21.994 17.87 37.045 44.92 59.829 5.038 4.243 10.248 8.632 15.796 13.44a3.69 3.69 0 002.423.904 3.69 3.69 0 002.423-.904c5.548-4.808 10.758-9.197 15.796-13.44 27.05-22.784 44.92-37.835 44.92-59.829C126.278 16.1 112.078 0 92.735 0zM76.592 89.997c-4.32 3.638-8.766 7.383-13.453 11.416-4.687-4.033-9.133-7.778-13.453-11.416-14.54-12.247-26.259-22.12-33.641-31.79h17.497a3.7 3.7 0 003.31-2.046l4.09-8.18L52.43 70.959a3.7 3.7 0 006.618 0l4.09-8.18 4.09 8.18a3.699 3.699 0 006.618 0l11.49-22.978 4.09 8.18c.626 1.253 1.907 2.02 3.308 2.02h17.498c-7.382 9.672-19.102 19.57-33.641 31.816zm18.43-39.19l-6.377-12.753a3.7 3.7 0 00-6.618 0L70.538 61.032l-4.09-8.18a3.7 3.7 0 00-6.618 0l-4.09 8.18-11.49-22.978a3.7 3.7 0 00-6.617 0l-6.377 12.753h-19.99C8.751 45.99 7.4 41.084 7.4 35.827 7.4 19.62 18.64 7.4 33.542 7.4c8.003 0 14.766 3.738 20.103 11.109 4.201 5.803 5.91 11.763 5.93 11.836a3.7 3.7 0 007.13-.007c.063-.23 6.576-22.938 26.03-22.938 14.904 0 26.144 12.221 26.144 28.428 0 5.257-1.352 10.162-3.868 14.98h-19.99z" fill="#FFC59E"/></svg>
